svgs/light/percent.svg

<svg xmlns="http://www.w3.org/2000/svg" viewBox="0 0 384 512"><!-- Font Awesome Pro 6.0.0-alpha2 by @fontawesome - https://fontawesome.com License - https://fontawesome.com/license (Commercial License) --><path d="M379.312 68.688C373.062 62.438 362.937 62.438 356.688 68.688L4.688 420.688C-1.562 426.938 -1.562 437.063 4.688 443.312C7.812 446.438 11.906 448 16 448S24.188 446.438 27.312 443.312L379.312 91.312C385.562 85.062 385.562 74.938 379.312 68.688ZM64 192C99.348 192 128 163.346 128 128S99.348 64 64 64C28.654 64 0 92.654 0 128S28.654 192 64 192ZM64 96C81.645 96 96 110.355 96 128S81.645 160 64 160S32 145.645 32 128S46.355 96 64 96ZM320 320C284.654 320 256 348.654 256 384S284.654 448 320 448C355.348 448 384 419.346 384 384S355.348 320 320 320ZM320 416C302.355 416 288 401.645 288 384S302.355 352 320 352S352 366.355 352 384S337.645 416 320 416Z"/></svg>

<svg xmlns="http://www.w3.org/2000/svg" viewBox="0 0 384 512"><!--! Font Awesome Pro 6.0.0-alpha3 by @fontawesome - https://fontawesome.com License - https://fontawesome.com/license (Commercial License) --><path d="M379.3 68.69c-6.25-6.25-16.38-6.25-22.62 0l-352 352c-6.25 6.25-6.25 16.38 0 22.62C7.813 446.4 11.91 448 16 448s8.188-1.562 11.31-4.688l352-352C385.6 85.06 385.6 74.94 379.3 68.69zM64 192c35.35 0 64-28.65 64-64S99.35 64.01 64 64.01c-35.35 0-64 28.65-64 63.1S28.65 192 64 192zM64 96c17.64 0 32 14.36 32 32S81.64 160 64 160S32 145.6 32 128S46.36 96 64 96zM320 320c-35.35 0-64 28.65-64 64s28.65 64 64 64c35.35 0 64-28.65 64-64S355.3 320 320 320zM320 416c-17.64 0-32-14.36-32-32s14.36-32 32-32s32 14.36 32 32S337.6 416 320 416z"/></svg>
